src/assets/images/projects_title.svg

<?xml version="1.0" encoding="UTF-8"?>
<svg width="248px" height="58px" viewBox="0 0 248 58" version="1.1" xmlns="http://www.w3.org/2000/svg" xmlns:xlink="http://www.w3.org/1999/xlink">
    <!-- Generator: Sketch 59 (86127) - https://sketch.com -->
    <title>Servicios</title>
    <desc>Created with Sketch.</desc>
    <g id="proyectos" stroke="none" stroke-width="1" fill="none" fill-rule="evenodd">
        <g id="Iphone11Pro_375x812_001" transform="translate(-64.000000, -115.000000)">
            <g id="Servicios" transform="translate(65.000000, 116.000000)">
                <rect id="Rectangle" stroke="#FBB420" stroke-width="2" x="0" y="0" width="246" height="56" rx="11"></rect>
                <path d="M20.98,41 L20.98,31.34 L24.97,31.34 C26.2766667,31.34 27.49,31.2175 28.61,30.9725 C29.73,30.7275 30.6983333,30.3133333 31.515,29.73 C32.3316667,29.1466667 32.9733333,28.365 33.44,27.385 C33.9066667,26.405 34.14,25.1916667 34.14,23.745 C34.14,22.275 33.8891667,21.0558333 33.3875,20.0875 C32.8858333,19.1191667 32.2091667,18.3491667 31.3575,17.7775 C30.5058333,17.2058333 29.5083333,16.8033333 28.365,16.57 C27.2216667,16.3366667 26.0083333,16.22 24.725,16.22 L24.725,16.22 L15.52,16.22 L15.52,41 L20.98,41 Z M24.62,26.72 L20.98,26.72 L20.98,20.84 L23.78,20.84 C24.2933333,20.84 24.83,20.8691667 25.39,20.9275 C25.95,20.9858333 26.4575,21.12 26.9125,21.33 C27.3675,21.54 27.7408333,21.8375 28.0325,22.2225 C28.3241667,22.6075 28.47,23.115 28.47,23.745 C28.47,24.3283333 28.3591667,24.8125 28.1375,25.1975 C27.9158333,25.5825 27.6241667,25.8858333 27.2625,26.1075 C26.9008333,26.3291667 26.4925,26.4866667 26.0375,26.58 C25.5825,26.6733333 25.11,26.72 24.62,26.72 L24.62,26.72 Z M44.1239094,41 L44.1239094,31.095 L46.8189094,31.095 L51.9989094,41 L58.5439094,41 L52.2439094,30.535 C53.9939094,30.2083333 55.3239094,29.4325 56.2339094,28.2075 C57.1439094,26.9825 57.5989094,25.495 57.5989094,23.745 C57.5989094,22.2983333 57.3480761,21.0908333 56.8464094,20.1225 C56.3447428,19.1541667 55.6680761,18.3841667 54.8164094,17.8125 C53.9647428,17.2408333 52.9730761,16.8325 51.8414094,16.5875 C50.7097428,16.3425 49.5139094,16.22 48.2539094,16.22 L48.2539094,16.22 L38.6639094,16.22 L38.6639094,41 L44.1239094,41 Z M47.3439094,26.475 L44.1239094,26.475 L44.1239094,20.84 L47.6939094,20.84 C48.1839094,20.84 48.6855761,20.875 49.1989094,20.945 C49.7122428,21.015 50.1672428,21.1491667 50.5639094,21.3475 C50.9605761,21.5458333 51.2872428,21.8316667 51.5439094,22.205 C51.8005761,22.5783333 51.9289094,23.08 51.9289094,23.71 C51.9289094,24.3866667 51.7830761,24.9116667 51.4914094,25.285 C51.1997428,25.6583333 50.8322428,25.9325 50.3889094,26.1075 C49.9455761,26.2825 49.4497428,26.3875 48.9014094,26.4225 C48.3530761,26.4575 47.8339094,26.475 47.3439094,26.475 L47.3439094,26.475 Z M74.4778189,41.63 C76.4144856,41.63 78.1994856,41.3266667 79.8328189,40.72 C81.4661522,40.1133333 82.8778189,39.2441667 84.0678189,38.1125 C85.2578189,36.9808333 86.1853189,35.61 86.8503189,34 C87.5153189,32.39 87.8478189,30.5933333 87.8478189,28.61 C87.8478189,26.6266667 87.5153189,24.83 86.8503189,23.22 C86.1853189,21.61 85.2578189,20.2391667 84.0678189,19.1075 C82.8778189,17.9758333 81.4661522,17.1066667 79.8328189,16.5 C78.1994856,15.8933333 76.4144856,15.59 74.4778189,15.59 C72.5411522,15.59 70.7561522,15.8933333 69.1228189,16.5 C67.4894856,17.1066667 66.0778189,17.9758333 64.8878189,19.1075 C63.6978189,20.2391667 62.7703189,21.61 62.1053189,23.22 C61.4403189,24.83 61.1078189,26.6266667 61.1078189,28.61 C61.1078189,30.5933333 61.4403189,32.39 62.1053189,34 C62.7703189,35.61 63.6978189,36.9808333 64.8878189,38.1125 C66.0778189,39.2441667 67.4894856,40.1133333 69.1228189,40.72 C70.7561522,41.3266667 72.5411522,41.63 74.4778189,41.63 Z M74.4778189,36.59 C73.3111522,36.59 72.2553189,36.3916667 71.3103189,35.995 C70.3653189,35.5983333 69.5544856,35.0441667 68.8778189,34.3325 C68.2011522,33.6208333 67.6819856,32.7808333 67.3203189,31.8125 C66.9586522,30.8441667 66.7778189,29.7766667 66.7778189,28.61 C66.7778189,27.4666667 66.9586522,26.405 67.3203189,25.425 C67.6819856,24.445 68.2011522,23.5991667 68.8778189,22.8875 C69.5544856,22.1758333 70.3653189,21.6216667 71.3103189,21.225 C72.2553189,20.8283333 73.3111522,20.63 74.4778189,20.63 C75.6444856,20.63 76.7003189,20.8283333 77.6453189,21.225 C78.5903189,21.6216667 79.4011522,22.1758333 80.0778189,22.8875 C80.7544856,23.5991667 81.2736522,24.445 81.6353189,25.425 C81.9969856,26.405 82.1778189,27.4666667 82.1778189,28.61 C82.1778189,29.7766667 81.9969856,30.8441667 81.6353189,31.8125 C81.2736522,32.7808333 80.7544856,33.6208333 80.0778189,34.3325 C79.4011522,35.0441667 78.5903189,35.5983333 77.6453189,35.995 C76.7003189,36.3916667 75.6444856,36.59 74.4778189,36.59 Z M104.201728,41 L104.201728,30.43 L113.511728,16.22 L107.036728,16.22 L101.471728,25.495 L96.2217283,16.22 L89.4317283,16.22 L98.7417283,30.43 L98.7417283,41 L104.201728,41 Z M134.100638,41 L134.100638,35.96 L122.095638,35.96 L122.095638,30.92 L132.840638,30.92 L132.840638,25.88 L122.095638,25.88 L122.095638,21.26 L133.470638,21.26 L133.470638,16.22 L116.635638,16.22 L116.635638,41 L134.100638,41 Z M151.609547,41.63 C153.312881,41.63 154.969547,41.28 156.579547,40.58 C158.189547,39.88 159.519547,38.795 160.569547,37.325 L160.569547,37.325 L156.019547,33.93 C155.459547,34.77 154.747881,35.4233333 153.884547,35.89 C153.021214,36.3566667 152.029547,36.59 150.909547,36.59 C149.929547,36.59 149.013714,36.3916667 148.162047,35.995 C147.310381,35.5983333 146.569547,35.0441667 145.939547,34.3325 C145.309547,33.6208333 144.813714,32.7808333 144.452047,31.8125 C144.090381,30.8441667 143.909547,29.7766667 143.909547,28.61 C143.909547,27.4666667 144.090381,26.405 144.452047,25.425 C144.813714,24.445 145.315381,23.5991667 145.957047,22.8875 C146.598714,22.1758333 147.357047,21.6216667 148.232047,21.225 C149.107047,20.8283333 150.057881,20.63 151.084547,20.63 C152.111214,20.63 153.015381,20.805 153.797047,21.155 C154.578714,21.505 155.237881,22.0066667 155.774547,22.66 L155.774547,22.66 L159.974547,19.23 C159.437881,18.5533333 158.831214,17.9816667 158.154547,17.515 C157.477881,17.0483333 156.772047,16.675 156.037047,16.395 C155.302047,16.115 154.555381,15.9108333 153.797047,15.7825 C153.038714,15.6541667 152.309547,15.59 151.609547,15.59 C149.672881,15.59 147.887881,15.8933333 146.254547,16.5 C144.621214,17.1066667 143.209547,17.9758333 142.019547,19.1075 C140.829547,20.2391667 139.902047,21.61 139.237047,23.22 C138.572047,24.83 138.239547,26.6266667 138.239547,28.61 C138.239547,30.5933333 138.572047,32.39 139.237047,34 C139.902047,35.61 140.829547,36.9808333 142.019547,38.1125 C143.209547,39.2441667 144.621214,40.1133333 146.254547,40.72 C147.887881,41.3266667 149.672881,41.63 151.609547,41.63 Z M174.893457,41 L174.893457,21.05 L181.963457,21.05 L181.963457,16.22 L162.363457,16.22 L162.363457,21.05 L169.433457,21.05 L169.433457,41 L174.893457,41 Z M197.862366,41.63 C199.799033,41.63 201.584033,41.3266667 203.217366,40.72 C204.850699,40.1133333 206.262366,39.2441667 207.452366,38.1125 C208.642366,36.9808333 209.569866,35.61 210.234866,34 C210.899866,32.39 211.232366,30.5933333 211.232366,28.61 C211.232366,26.6266667 210.899866,24.83 210.234866,23.22 C209.569866,21.61 208.642366,20.2391667 207.452366,19.1075 C206.262366,17.9758333 204.850699,17.1066667 203.217366,16.5 C201.584033,15.8933333 199.799033,15.59 197.862366,15.59 C195.925699,15.59 194.140699,15.8933333 192.507366,16.5 C190.874033,17.1066667 189.462366,17.9758333 188.272366,19.1075 C187.082366,20.2391667 186.154866,21.61 185.489866,23.22 C184.824866,24.83 184.492366,26.6266667 184.492366,28.61 C184.492366,30.5933333 184.824866,32.39 185.489866,34 C186.154866,35.61 187.082366,36.9808333 188.272366,38.1125 C189.462366,39.2441667 190.874033,40.1133333 192.507366,40.72 C194.140699,41.3266667 195.925699,41.63 197.862366,41.63 Z M197.862366,36.59 C196.695699,36.59 195.639866,36.3916667 194.694866,35.995 C193.749866,35.5983333 192.939033,35.0441667 192.262366,34.3325 C191.585699,33.6208333 191.066533,32.7808333 190.704866,31.8125 C190.343199,30.8441667 190.162366,29.7766667 190.162366,28.61 C190.162366,27.4666667 190.343199,26.405 190.704866,25.425 C191.066533,24.445 191.585699,23.5991667 192.262366,22.8875 C192.939033,22.1758333 193.749866,21.6216667 194.694866,21.225 C195.639866,20.8283333 196.695699,20.63 197.862366,20.63 C199.029033,20.63 200.084866,20.8283333 201.029866,21.225 C201.974866,21.6216667 202.785699,22.1758333 203.462366,22.8875 C204.139033,23.5991667 204.658199,24.445 205.019866,25.425 C205.381533,26.405 205.562366,27.4666667 205.562366,28.61 C205.562366,29.7766667 205.381533,30.8441667 205.019866,31.8125 C204.658199,32.7808333 204.139033,33.6208333 203.462366,34.3325 C202.785699,35.0441667 201.974866,35.5983333 201.029866,35.995 C200.084866,36.3916667 199.029033,36.59 197.862366,36.59 Z M222.511276,41.63 C223.794609,41.63 225.013776,41.4666667 226.168776,41.14 C227.323776,40.8133333 228.338776,40.3116667 229.213776,39.635 C230.088776,38.9583333 230.782942,38.1066667 231.296276,37.08 C231.809609,36.0533333 232.066276,34.8516667 232.066276,33.475 C232.066276,32.0283333 231.786276,30.8733333 231.226276,30.01 C230.666276,29.1466667 229.960442,28.4583333 229.108776,27.945 C228.257109,27.4316667 227.341276,27.035 226.361276,26.755 C225.381276,26.475 224.465442,26.195 223.613776,25.915 C222.762109,25.635 222.056276,25.2966667 221.496276,24.9 C220.936276,24.5033333 220.656276,23.9316667 220.656276,23.185 C220.656276,22.7183333 220.772942,22.3216667 221.006276,21.995 C221.239609,21.6683333 221.542942,21.4058333 221.916276,21.2075 C222.289609,21.0091667 222.686276,20.8633333 223.106276,20.77 C223.526276,20.6766667 223.934609,20.63 224.331276,20.63 C225.007942,20.63 225.725442,20.7641667 226.483776,21.0325 C227.242109,21.3008333 227.842942,21.715 228.286276,22.275 L228.286276,22.275 L232.031276,18.18 C230.981276,17.2466667 229.802942,16.5816667 228.496276,16.185 C227.189609,15.7883333 225.836276,15.59 224.436276,15.59 C223.222942,15.59 222.044609,15.7591667 220.901276,16.0975 C219.757942,16.4358333 218.748776,16.9433333 217.873776,17.62 C216.998776,18.2966667 216.298776,19.1366667 215.773776,20.14 C215.248776,21.1433333 214.986276,22.31 214.986276,23.64 C214.986276,25.0166667 215.272109,26.125 215.843776,26.965 C216.415442,27.805 217.132942,28.4816667 217.996276,28.995 C218.859609,29.5083333 219.792942,29.9166667 220.796276,30.22 C221.799609,30.5233333 222.732942,30.8266667 223.596276,31.13 C224.459609,31.4333333 225.177109,31.8008333 225.748776,32.2325 C226.320442,32.6641667 226.606276,33.2533333 226.606276,34 C226.606276,34.4433333 226.495442,34.8283333 226.273776,35.155 C226.052109,35.4816667 225.760442,35.75 225.398776,35.96 C225.037109,36.17 224.628776,36.3275 224.173776,36.4325 C223.718776,36.5375 223.269609,36.59 222.826276,36.59 C221.916276,36.59 221.035442,36.3858333 220.183776,35.9775 C219.332109,35.5691667 218.626276,34.9916667 218.066276,34.245 L218.066276,34.245 L214.181276,38.515 C215.371276,39.6116667 216.654609,40.405 218.031276,40.895 C219.407942,41.385 220.901276,41.63 222.511276,41.63 Z" id="PROYECTOS" fill="#FFFFFF" fill-rule="nonzero"></path>
                <circle id="Oval" fill="#FFFFFF" cx="199" cy="29" r="10"></circle>
            </g>
        </g>
    </g>
</svg>

<svg width="248" height="58" viewBox="0 0 248 58" xmlns="http://www.w3.org/2000/svg"><g transform="translate(1 1)" fill="none" fill-rule="evenodd"><rect stroke="#FBB420" stroke-width="2" width="246" height="56" rx="11"/><path d="M20.98 41v-9.66h3.99c1.307 0 2.52-.122 3.64-.367s2.088-.66 2.905-1.243c.817-.583 1.458-1.365 1.925-2.345.467-.98.7-2.193.7-3.64 0-1.47-.25-2.69-.752-3.658s-1.179-1.738-2.03-2.31c-.852-.571-1.85-.974-2.993-1.207a18.18 18.18 0 00-3.64-.35H15.52V41h5.46zm3.64-14.28h-3.64v-5.88h2.8c.513 0 1.05.03 1.61.087.56.059 1.067.193 1.523.403.454.21.828.508 1.12.893.291.385.437.892.437 1.522 0 .583-.11 1.067-.332 1.453a2.52 2.52 0 01-.876.91c-.361.221-.77.379-1.224.472-.456.093-.928.14-1.418.14zM44.124 41v-9.905h2.695L51.999 41h6.545l-6.3-10.465c1.75-.327 3.08-1.102 3.99-2.328.91-1.224 1.365-2.712 1.365-4.462 0-1.447-.25-2.654-.753-3.623-.501-.968-1.178-1.738-2.03-2.31-.851-.571-1.843-.98-2.975-1.225a16.921 16.921 0 00-3.587-.367h-9.59V41h5.46zm3.22-14.525h-3.22V20.84h3.57c.49 0 .992.035 1.505.105.513.07.968.204 1.365.402.397.199.723.485.98.858s.385.875.385 1.505c0 .677-.146 1.202-.438 1.575-.291.373-.659.648-1.102.823-.443.174-.94.28-1.488.314-.548.035-1.067.053-1.557.053zM74.478 41.63c1.936 0 3.721-.303 5.355-.91 1.633-.607 3.045-1.476 4.235-2.608 1.19-1.131 2.117-2.502 2.782-4.112.665-1.61.998-3.407.998-5.39 0-1.983-.333-3.78-.998-5.39-.665-1.61-1.592-2.98-2.782-4.112-1.19-1.132-2.602-2.001-4.235-2.608-1.634-.607-3.419-.91-5.355-.91-1.937 0-3.722.303-5.355.91-1.634.607-3.045 1.476-4.235 2.608-1.19 1.131-2.118 2.502-2.783 4.112-.665 1.61-.997 3.407-.997 5.39 0 1.983.332 3.78.997 5.39.665 1.61 1.593 2.98 2.783 4.112 1.19 1.132 2.601 2.001 4.235 2.608 1.633.607 3.418.91 5.355.91zm0-5.04c-1.167 0-2.223-.198-3.168-.595a7.109 7.109 0 01-2.432-1.662 7.335 7.335 0 01-1.558-2.52c-.361-.969-.542-2.036-.542-3.203 0-1.143.18-2.205.542-3.185.362-.98.881-1.826 1.558-2.538a7.109 7.109 0 012.432-1.662c.945-.397 2.001-.595 3.168-.595 1.166 0 2.222.198 3.167.595.945.397 1.756.95 2.433 1.662a7.303 7.303 0 011.557 2.538c.362.98.543 2.042.543 3.185 0 1.167-.181 2.234-.543 3.203a7.335 7.335 0 01-1.557 2.52 7.109 7.109 0 01-2.433 1.662c-.945.397-2 .595-3.167.595zM104.202 41V30.43l9.31-14.21h-6.475l-5.565 9.275-5.25-9.275h-6.79l9.31 14.21V41h5.46zm29.899 0v-5.04h-12.005v-5.04h10.745v-5.04h-10.745v-4.62h11.375v-5.04h-16.835V41H134.1zm17.509.63c1.703 0 3.36-.35 4.97-1.05 1.61-.7 2.94-1.785 3.99-3.255l-4.55-3.395a5.921 5.921 0 01-2.135 1.96c-.864.467-1.855.7-2.975.7-.98 0-1.896-.198-2.748-.595a6.742 6.742 0 01-2.222-1.662 7.959 7.959 0 01-1.488-2.52c-.362-.969-.542-2.036-.542-3.203 0-1.143.18-2.205.542-3.185.362-.98.863-1.826 1.505-2.538a6.825 6.825 0 012.275-1.662 6.827 6.827 0 012.853-.595c1.026 0 1.93.175 2.712.525.782.35 1.44.852 1.978 1.505l4.2-3.43a8.422 8.422 0 00-1.82-1.715 9.982 9.982 0 00-2.118-1.12 11.82 11.82 0 00-2.24-.612 13.113 13.113 0 00-2.187-.193c-1.937 0-3.722.303-5.355.91-1.634.607-3.045 1.476-4.235 2.608-1.19 1.131-2.118 2.502-2.783 4.112-.665 1.61-.997 3.407-.997 5.39 0 1.983.332 3.78.997 5.39.665 1.61 1.593 2.98 2.783 4.112 1.19 1.132 2.601 2.001 4.235 2.608 1.633.607 3.418.91 5.355.91zm23.283-.63V21.05h7.07v-4.83h-19.6v4.83h7.07V41h5.46zm22.97.63c1.936 0 3.721-.303 5.354-.91 1.634-.607 3.045-1.476 4.235-2.608 1.19-1.131 2.118-2.502 2.783-4.112.665-1.61.997-3.407.997-5.39 0-1.983-.332-3.78-.997-5.39-.665-1.61-1.593-2.98-2.783-4.112-1.19-1.132-2.601-2.001-4.235-2.608-1.633-.607-3.418-.91-5.355-.91-1.936 0-3.721.303-5.355.91-1.633.607-3.045 1.476-4.235 2.608-1.19 1.131-2.117 2.502-2.782 4.112-.665 1.61-.998 3.407-.998 5.39 0 1.983.333 3.78.998 5.39.665 1.61 1.592 2.98 2.782 4.112 1.19 1.132 2.602 2.001 4.235 2.608 1.634.607 3.419.91 5.355.91zm0-5.04c-1.167 0-2.223-.198-3.168-.595a7.109 7.109 0 01-2.433-1.662 7.335 7.335 0 01-1.557-2.52c-.362-.969-.543-2.036-.543-3.203 0-1.143.181-2.205.543-3.185.362-.98.88-1.826 1.557-2.538a7.109 7.109 0 012.433-1.662c.945-.397 2-.595 3.167-.595 1.167 0 2.223.198 3.168.595.945.397 1.756.95 2.432 1.662a7.303 7.303 0 011.558 2.538c.362.98.542 2.042.542 3.185 0 1.167-.18 2.234-.542 3.203a7.335 7.335 0 01-1.558 2.52 7.109 7.109 0 01-2.432 1.662c-.945.397-2.001.595-3.168.595zm24.648 5.04c1.284 0 2.503-.163 3.658-.49 1.155-.327 2.17-.828 3.045-1.505a7.315 7.315 0 002.082-2.555c.514-1.027.77-2.228.77-3.605 0-1.447-.28-2.602-.84-3.465a6.505 6.505 0 00-2.117-2.065 11.32 11.32 0 00-2.748-1.19c-.98-.28-1.896-.56-2.747-.84-.852-.28-1.558-.618-2.118-1.015-.56-.397-.84-.968-.84-1.715 0-.467.117-.863.35-1.19.234-.327.537-.59.91-.788.374-.198.77-.344 1.19-.437a5.64 5.64 0 011.225-.14c.677 0 1.394.134 2.153.402.758.269 1.359.683 1.802 1.243l3.745-4.095a9.364 9.364 0 00-3.535-1.995 13.9 13.9 0 00-4.06-.595c-1.213 0-2.391.17-3.535.508-1.143.338-2.152.845-3.027 1.522a7.593 7.593 0 00-2.1 2.52c-.525 1.003-.788 2.17-.788 3.5 0 1.377.286 2.485.858 3.325a6.748 6.748 0 002.152 2.03c.864.513 1.797.922 2.8 1.225 1.004.303 1.937.607 2.8.91.864.303 1.581.67 2.153 1.103.571.431.857 1.02.857 1.767 0 .443-.11.828-.332 1.155a2.642 2.642 0 01-.875.805 4.39 4.39 0 01-1.225.472 5.979 5.979 0 01-1.348.158c-.91 0-1.79-.204-2.642-.613a5.671 5.671 0 01-2.118-1.732l-3.885 4.27c1.19 1.097 2.474 1.89 3.85 2.38 1.377.49 2.87.735 4.48.735z" fill="#FFF" fill-rule="nonzero"/><circle fill="#FFF" cx="199" cy="29" r="10"/></g></svg>
